; generated by PrusaSlicer 2.2.0+win64 on 2020-07-28 at 21:56:09 UTC

; 

; external perimeters extrusion width = 0.45mm
; perimeters extrusion width = 0.45mm
; infill extrusion width = 0.45mm
; solid infill extrusion width = 0.45mm
; top infill extrusion width = 0.40mm
; first layer extrusion width = 0.42mm

M73 P0 R68
M73 Q0 S69
M201 X1000 Y1000 Z200 E5000 ; sets maximum accelerations, mm/sec^2
M203 X200 Y200 Z12 E120 ; sets maximum feedrates, mm/sec
M204 P1250 R1250 T1250 ; sets acceleration (P, T) and retract acceleration (R), mm/sec^2
M205 X8.00 Y8.00 Z0.40 E4.50 ; sets the jerk limits, mm/sec
M205 S0 T0 ; sets the minimum extruding and travel feed rate, mm/sec
M107
M862.3 P "MK3S" ; printer model check
M862.1 P0.4 ; nozzle diameter check
M115 U3.9.0 ; tell printer latest fw version
G90 ; use absolute coordinates
M83 ; extruder relative mode
M104 S215 ; set extruder temp
M140 S55 ; set bed temp
M190 S55 ; wait for bed temp
M109 S215 ; wait for extruder temp
G28 W ; home all without mesh bed level
G80 ; mesh bed leveling
G1 Y-3.0 F1000.0 ; go outside print area
G92 E0.0
G1 X60.0 E9.0 F1000.0 ; intro line
M73 Q0 S69
M73 P0 R68
G1 X100.0 E12.5 F1000.0 ; intro line
G92 E0.0
M221 S95
G21 ; set units to millimeters
G90 ; use absolute coordinates
M83 ; use relative distances for extrusion
M900 K0.06 ; Filament gcode LA 1.5
M900 K30 ; Filament gcode LA 1.0
;BEFORE_LAYER_CHANGE
G92 E0.0
;0.3


G1 E-3.00000 F3600.00000
G1 Z0.300 F10800.000
;AFTER_LAYER_CHANGE
;0.3
G1 X92.492 Y68.977
G1 E3.00000 F3600.00000
M204 S1000
G1 F1800.000
G1 X93.174 Y68.478 E0.03822
G1 X93.988 Y68.252 E0.03822
G1 X105.482 Y67.803 E0.52044
G1 X155.528 Y67.803 E2.26417
G1 X156.762 Y67.925 E0.05611
G1 X157.941 Y68.280 E0.05568
G1 X159.038 Y68.863 E0.05620
G1 X159.946 Y69.595 E0.05278
G1 X160.745 Y70.536 E0.05584
G1 X161.180 Y71.262 E0.03831
G1 X161.615 Y72.345 E0.05277
G1 X161.855 Y73.609 E0.05824
G1 X161.879 Y131.227 E2.60673
G1 X161.756 Y132.409 E0.05375
G1 X161.395 Y133.594 E0.05608
G1 X160.809 Y134.689 E0.05617
G1 X160.053 Y135.617 E0.05417
G1 X159.061 Y136.439 E0.05827
G1 X158.014 Y137.005 E0.05383
G1 X147.540 Y141.294 E0.51209
G1 X146.291 Y141.724 E0.05975
G1 X145.017 Y142.014 E0.05911
G1 X142.936 Y142.197 E0.09451
G1 X141.641 Y142.186 E0.05857
G1 X91.680 Y137.127 E2.27191
G1 X90.941 Y136.922 E0.03467
G1 X90.310 Y136.494 E0.03450
G1 X89.824 Y135.836 E0.03704
G1 X89.591 Y135.047 E0.03721
G1 X88.418 Y119.558 E0.70275
G1 X91.854 Y70.407 E2.22912
G1 X92.051 Y69.636 E0.03602
G1 X92.459 Y69.027 E0.03314
G1 F8640.000
G1 X93.174 Y68.478 E-0.35679
G1 X93.988 Y68.252 E-0.33439
G1 X99.437 Y68.039 E-2.15882
G1 E-0.15000 F3600.00000
G1 X93.019 Y133.871 F10800.000
G1 E3.00000 F3600.00000
G1 F1800.000
G1 X93.004 Y134.093 E0.01006
G1 X92.959 Y134.090 E0.00202
G1 X93.004 Y133.929 E0.00755
G1 F8640.000
G1 X93.004 Y134.093 E-0.06494
G1 X92.959 Y134.090 E-0.01765
G1 X93.004 Y133.929 E-0.06606
G1 E-2.85135 F3600.00000
G1 X93.713 Y127.146 F10800.000
G1 E3.00000 F3600.00000
G1 F1800.000
G1 X93.658 Y126.478 E0.03032
G1 X93.548 Y125.616 E0.03932
G1 X93.400 Y124.760 E0.03932
G1 X93.215 Y123.911 E0.03930
G1 X93.010 Y123.136 E0.03628
G1 X92.754 Y122.306 E0.03931
G1 X92.438 Y121.428 E0.04221
G1 X92.108 Y120.630 E0.03907
G1 X91.551 Y119.473 E0.05809
G1 X94.912 Y71.415 E2.17954
G1 X96.422 Y71.520 E0.06851
G1 X98.784 Y74.768 E0.18169
G1 X99.104 Y75.179 E0.02353
G1 X99.379 Y75.474 E0.01826
G1 X98.915 Y75.387 E0.02139
G1 X97.119 Y75.240 E0.08150
G1 X93.932 Y120.823 E2.06728
G1 X94.010 Y121.228 E0.01864
G1 X94.226 Y121.538 E0.01712
G1 X94.558 Y121.760 E0.01807
G1 X94.987 Y121.839 E0.01973
G1 X95.318 Y121.764 E0.01538
G1 X95.514 Y121.662 E0.00999
G1 X95.634 Y121.555 E0.00730
G1 X93.732 Y127.090 E0.26479
G1 F8640.000
G1 X93.658 Y126.478 E-0.24370
G1 X93.548 Y125.616 E-0.34404
G1 X93.400 Y124.760 E-0.34403
G1 X93.215 Y123.911 E-0.34387
G1 X93.010 Y123.136 E-0.31740
G1 X92.754 Y122.306 E-0.34396
G1 X92.438 Y121.428 E-0.36931
G1 X92.108 Y120.630 E-0.34181
G1 X91.887 Y120.170 E-0.20187
G1 E-0.15000 F3600.00000
G1 X153.759 Y74.531 F10800.000
G1 E3.00000 F3600.00000
G1 F1800.000
G1 X153.759 Y80.786 E0.28300
G1 X158.759 Y81.786 E0.23069
G1 X158.759 Y131.140 E2.23285
G1 X158.742 Y131.476 E0.01521
G1 X158.696 Y131.789 E0.01435
G1 X158.619 Y132.097 E0.01435
G1 X158.511 Y132.398 E0.01444
G1 X158.373 Y132.688 E0.01452
G1 X158.209 Y132.961 E0.01441
G1 X158.019 Y133.216 E0.01441
G1 X157.804 Y133.451 E0.01441
G1 X157.568 Y133.664 E0.01441
G1 X157.311 Y133.853 E0.01441
G1 X157.038 Y134.016 E0.01441
G1 X156.732 Y134.159 E0.01526
G1 X146.413 Y138.383 E0.50448
G1 X145.952 Y138.557 E0.02226
G1 X146.064 Y138.472 E0.00636
G1 X146.324 Y138.210 E0.01671
G1 X146.543 Y137.912 E0.01671
G1 X146.717 Y137.587 E0.01670
G1 X146.843 Y137.240 E0.01671
G1 X146.917 Y136.878 E0.01671
G1 X146.939 Y136.509 E0.01671
G1 X146.908 Y136.141 E0.01671
G1 X146.825 Y135.782 E0.01671
G1 X146.690 Y135.438 E0.01671
G1 X146.508 Y135.117 E0.01670
G1 X146.282 Y134.825 E0.01671
G1 X145.833 Y134.393 E0.02818
G1 X97.207 Y134.393 E2.19994
G1 X96.863 Y131.406 E0.13604
G1 X96.856 Y130.933 E0.02139
G1 X96.942 Y130.488 E0.02048
G1 X97.018 Y130.275 E0.01025
G1 X97.227 Y129.886 E0.01996
G1 X98.995 Y127.725 E0.12634
G1 X99.400 Y127.143 E0.03207
G1 X99.767 Y126.543 E0.03185
G1 X100.098 Y125.921 E0.03184
G1 X100.391 Y125.281 E0.03184
G1 X100.644 Y124.625 E0.03185
G1 X100.859 Y123.954 E0.03185
G1 X101.032 Y123.272 E0.03185
G1 X101.165 Y122.581 E0.03184
G1 X101.256 Y121.883 E0.03184
G1 X101.305 Y121.181 E0.03185
G1 X101.312 Y120.477 E0.03185
G1 X101.277 Y119.774 E0.03185
G1 X101.200 Y119.074 E0.03184
G1 X101.082 Y118.380 E0.03185
G1 X100.922 Y117.695 E0.03185
G1 X100.721 Y117.020 E0.03184
G1 X100.479 Y116.357 E0.03195
G1 X99.784 Y114.787 E0.07768
G1 X99.624 Y114.546 E0.01306
G1 X99.357 Y114.344 E0.01517
G1 X99.120 Y114.257 E0.01142
G1 X98.833 Y114.223 E0.01308
G1 X98.519 Y114.290 E0.01450
G1 X98.320 Y114.391 E0.01012
G1 X98.199 Y114.497 E0.00730
G1 X98.661 Y113.155 E0.06426
G1 X98.743 Y112.837 E0.01484
G1 X98.777 Y112.480 E0.01621
G1 X98.754 Y112.123 E0.01621
G1 X98.683 Y111.809 E0.01455
G1 X98.382 Y110.779 E0.04855
G1 X98.125 Y109.775 E0.04688
G1 X97.902 Y108.763 E0.04688
G1 X97.714 Y107.744 E0.04688
G1 X97.560 Y106.719 E0.04688
G1 X97.440 Y105.690 E0.04688
G1 X97.355 Y104.657 E0.04688
G1 X97.305 Y103.622 E0.04688
G1 X97.290 Y102.586 E0.04688
G1 X97.310 Y101.550 E0.04688
G1 X97.365 Y100.508 E0.04718
G1 X98.665 Y81.924 E0.84283
G1 X102.290 Y81.924 E0.16401
G1 X102.290 Y77.362 E0.20641
G1 X105.969 Y70.924 E0.33545
G1 X155.511 Y70.924 E2.24137
G1 X155.841 Y70.941 E0.01498
G1 X156.155 Y70.987 E0.01436
G1 X156.463 Y71.064 E0.01436
G1 X156.762 Y71.171 E0.01436
G1 X157.049 Y71.307 E0.01436
G1 X157.321 Y71.470 E0.01436
G1 X157.576 Y71.659 E0.01436
G1 X157.811 Y71.872 E0.01436
G1 X158.024 Y72.107 E0.01436
G1 X158.213 Y72.362 E0.01436
G1 X158.376 Y72.634 E0.01436
G1 X158.512 Y72.921 E0.01436
G1 X158.619 Y73.220 E0.01436
G1 X158.696 Y73.528 E0.01436
G1 X158.698 Y73.543 E0.00070
G1 X153.818 Y74.519 E0.22517
G1 X154.114 Y74.822 F10800.000
G1 F1800.000
G1 X154.114 Y80.495 E0.25662
G1 X159.114 Y81.495 E0.23069
G1 X159.114 Y131.149 E2.24643
G1 X159.097 Y131.511 E0.01640
G1 X159.045 Y131.859 E0.01593
G1 X158.959 Y132.201 E0.01593
G1 X158.840 Y132.534 E0.01604
G1 X158.687 Y132.856 E0.01612
G1 X158.505 Y133.159 E0.01599
G1 X158.294 Y133.442 E0.01599
G1 X158.055 Y133.704 E0.01599
G1 X157.793 Y133.940 E0.01599
G1 X157.508 Y134.150 E0.01599
G1 X157.204 Y134.331 E0.01599
G1 X156.875 Y134.485 E0.01645
G1 X146.543 Y138.714 E0.50510
G1 X146.040 Y138.904 E0.02434
G1 X145.532 Y139.064 E0.02408
G1 X145.016 Y139.196 E0.02408
G1 X144.494 Y139.299 E0.02408
G1 X143.967 Y139.372 E0.02408
G1 X143.436 Y139.416 E0.02408
G1 X142.899 Y139.431 E0.02434
G1 X142.282 Y139.431 E0.02790
G1 X142.282 Y138.751 E0.03076
G1 X144.387 Y138.751 E0.09522
G1 X144.689 Y138.730 E0.01372
G1 X145.000 Y138.661 E0.01439
G1 X145.297 Y138.550 E0.01439
G1 X145.576 Y138.396 E0.01439
G1 X145.829 Y138.204 E0.01439
G1 X146.053 Y137.978 E0.01439
G1 X146.242 Y137.722 E0.01439
G1 X146.392 Y137.442 E0.01439
G1 X146.500 Y137.143 E0.01439
G1 X146.564 Y136.831 E0.01439
G1 X146.583 Y136.514 E0.01439
G1 X146.556 Y136.197 E0.01439
G1 X146.484 Y135.887 E0.01439
G1 X146.368 Y135.591 E0.01439
G1 X146.212 Y135.315 E0.01439
G1 X146.017 Y135.063 E0.01439
G1 X145.690 Y134.749 E0.02053
G1 X96.890 Y134.749 E2.20780
G1 X96.509 Y131.437 E0.15080
G1 X96.491 Y131.163 E0.01242
G1 X96.501 Y130.901 E0.01186
G1 X96.538 Y130.641 E0.01189
G1 X96.601 Y130.386 E0.01189
G1 X96.689 Y130.138 E0.01189
G1 X96.802 Y129.901 E0.01189
G1 X96.936 Y129.680 E0.01168
G1 X98.711 Y127.511 E0.12685
G1 X99.102 Y126.949 E0.03097
G1 X99.458 Y126.366 E0.03088
G1 X99.779 Y125.764 E0.03088
G1 X100.063 Y125.143 E0.03088
G1 X100.187 Y124.821 E0.01563
G1 X100.309 Y124.506 E0.01525
G1 X100.517 Y123.856 E0.03088
G1 X100.685 Y123.195 E0.03088
G1 X100.814 Y122.524 E0.03088
G1 X100.902 Y121.847 E0.03088
G1 X100.950 Y121.167 E0.03088
G1 X100.957 Y120.484 E0.03088
G1 X100.923 Y119.802 E0.03088
G1 X100.848 Y119.124 E0.03088
G1 X100.733 Y118.451 E0.03088
G1 X100.578 Y117.786 E0.03088
G1 X100.383 Y117.132 E0.03088
G1 X100.149 Y116.490 E0.03092
G1 X99.471 Y114.958 E0.07578
G1 X99.361 Y114.793 E0.00897
G1 X99.185 Y114.659 E0.01001
G1 X99.037 Y114.605 E0.00712
G1 X98.849 Y114.583 E0.00855
G1 X98.638 Y114.628 E0.00976
G1 X98.521 Y114.687 E0.00595
G1 X98.358 Y114.831 E0.00981
G1 X98.261 Y115.006 E0.00904
G1 X93.820 Y127.927 E0.61815
G1 X93.773 Y128.242 E0.01439
G1 X93.665 Y130.148 E0.08640
G1 X93.504 Y132.039 E0.08584
G1 X93.334 Y134.472 E0.11036
G1 X92.484 Y134.413 E0.03851
G1 X92.828 Y133.225 E0.05595
G1 X93.004 Y132.457 E0.03562
G1 X93.167 Y131.550 E0.04172
G1 X93.263 Y130.701 E0.03866
G1 X93.378 Y129.076 E0.07369
G1 X93.403 Y128.222 E0.03866
G1 X93.374 Y127.367 E0.03872
G1 X93.304 Y126.516 E0.03863
G1 X93.196 Y125.669 E0.03861
G1 X93.051 Y124.828 E0.03861
G1 X92.869 Y123.994 E0.03860
G1 X92.668 Y123.234 E0.03560
G1 X92.416 Y122.418 E0.03861
G1 X92.106 Y121.556 E0.04147
G1 X91.782 Y120.772 E0.03836
G1 X91.458 Y120.072 E0.03492
G1 X91.190 Y119.547 E0.02668
G1 X94.582 Y71.035 E2.20010
G1 X96.612 Y71.177 E0.09209
G1 X99.069 Y74.554 E0.18893
G1 X99.374 Y74.948 E0.02254
G1 X99.724 Y75.321 E0.02312
G1 X100.097 Y75.633 E0.02202
G1 X100.375 Y76.024 E0.02172
G1 X99.865 Y75.996 E0.02310
G1 X99.387 Y75.837 E0.02280
G1 X98.867 Y75.740 E0.02391
G1 X97.449 Y75.624 E0.06439
G1 X94.290 Y120.801 E2.04890
G1 X94.345 Y121.086 E0.01313
G1 X94.479 Y121.280 E0.01068
G1 X94.694 Y121.424 E0.01169
G1 X94.979 Y121.476 E0.01310
G1 X95.195 Y121.427 E0.01003
G1 X95.311 Y121.367 E0.00588
G1 X95.470 Y121.224 E0.00969
G1 X95.566 Y121.052 E0.00892
G1 X98.320 Y113.052 E0.38277
G1 X98.392 Y112.775 E0.01293
G1 X98.420 Y112.475 E0.01366
G1 X98.401 Y112.173 E0.01366
G1 X98.339 Y111.898 E0.01277
G1 X98.039 Y110.873 E0.04832
G1 X97.779 Y109.857 E0.04743
G1 X97.554 Y108.834 E0.04743
G1 X97.363 Y107.803 E0.04743
G1 X97.207 Y106.766 E0.04743
G1 X97.086 Y105.725 E0.04743
G1 X97.000 Y104.680 E0.04743
G1 X96.950 Y103.633 E0.04743
G1 X96.935 Y102.585 E0.04743
G1 X96.955 Y101.537 E0.04743
G1 X97.010 Y100.486 E0.04758
G1 X98.333 Y81.569 E0.85797
G1 X101.934 Y81.569 E0.16292
G1 X101.934 Y77.267 E0.19459
G1 X105.762 Y70.569 E0.34906
G1 X155.519 Y70.569 E2.25110
G1 X155.876 Y70.586 E0.01616
G1 X156.225 Y70.638 E0.01594
G1 X156.566 Y70.724 E0.01594
G1 X156.898 Y70.842 E0.01594
G1 X157.216 Y70.993 E0.01594
G1 X157.519 Y71.174 E0.01594
G1 X157.802 Y71.384 E0.01594
G1 X158.063 Y71.620 E0.01594
G1 X158.299 Y71.881 E0.01594
G1 X158.509 Y72.164 E0.01594
G1 X158.690 Y72.467 E0.01594
G1 X158.841 Y72.785 E0.01594
G1 X158.959 Y73.117 E0.01594
G1 X159.045 Y73.458 E0.01594
G1 X159.098 Y73.826 E0.01680
G1 X154.173 Y74.811 E0.22720
G1 X153.716 Y74.858 F10800.000
G1 F8640.000
G1 X154.114 Y80.495 E-2.25004
G1 X155.601 Y80.792 E-0.59996
G1 E-0.15000 F3600.00000
G1 X158.314 Y72.753 F10800.000
G1 E3.00000 F3600.00000
G1 F1800.000
G1 X157.622 Y72.061 E0.04435
G1 X157.406 Y71.866 E0.01318
G1 X157.172 Y71.692 E0.01318
G1 X156.923 Y71.542 E0.01318
G1 X156.660 Y71.418 E0.01318
G1 X156.375 Y71.317 E0.01368
G1 X158.366 Y73.308 E0.12750
G1 X158.373 Y73.336 E0.00131
G1 X157.971 Y73.417 E0.01856
G1 X155.758 Y71.204 E0.14172
G1 X155.242 Y71.191 E0.02337
G1 X157.551 Y73.500 E0.14790
G1 X157.132 Y73.584 E0.01937
G1 X154.738 Y71.191 E0.15327
G1 X154.235 Y71.191 E0.02280
G1 X156.712 Y73.668 E0.15864
G1 X156.293 Y73.752 E0.01937
G1 X153.732 Y71.191 E0.16402
G1 X153.228 Y71.191 E0.02280
G1 X155.873 Y73.836 E0.16939
G1 X155.454 Y73.920 E0.01937
G1 X152.725 Y71.191 E0.17476
G1 X152.221 Y71.191 E0.02280
G1 X155.034 Y74.004 E0.18014
G1 X154.615 Y74.088 E0.01937
G1 X151.718 Y71.191 E0.18551
G1 X151.215 Y71.191 E0.02280
G1 X154.195 Y74.172 E0.19088
G1 X153.776 Y74.256 E0.01937
G1 X150.711 Y71.191 E0.19626
G1 X150.208 Y71.191 E0.02280
G1 X153.492 Y74.475 E0.21033
G1 X153.492 Y74.979 E0.02280
G1 X149.704 Y71.191 E0.24257
G1 X149.201 Y71.191 E0.02280
G1 X153.492 Y75.482 E0.27481
G1 X153.492 Y75.986 E0.02280
G1 X148.698 Y71.191 E0.30705
G1 X148.194 Y71.191 E0.02280
G1 X153.492 Y76.489 E0.33929
G1 X153.492 Y76.992 E0.02280
G1 X147.691 Y71.191 E0.37153
G1 X147.187 Y71.191 E0.02280
G1 X153.492 Y77.496 E0.40377
G1 X153.492 Y77.999 E0.02280
G1 X146.684 Y71.191 E0.43601
G1 X146.181 Y71.191 E0.02280
G1 X153.492 Y78.503 E0.46825
G1 X153.492 Y79.006 E0.02280
G1 X145.677 Y71.191 E0.50049
G1 X145.174 Y71.191 E0.02280
G1 X153.492 Y79.509 E0.53273
G1 X153.492 Y80.013 E0.02280
G1 X144.670 Y71.191 E0.56497
G1 X144.167 Y71.191 E0.02280
G1 X153.492 Y80.516 E0.59721
G1 X153.492 Y81.005 E0.02213
G1 X154.103 Y81.127 E0.02821
G1 X158.492 Y85.516 E0.28109
G1 X158.492 Y85.013 E0.02280
G1 X154.732 Y81.253 E0.24079
G1 X155.361 Y81.379 E0.02906
G1 X158.492 Y84.509 E0.20049
G1 X158.492 Y84.006 E0.02280
G1 X155.991 Y81.505 E0.16020
G1 X156.620 Y81.630 E0.02906
G1 X158.492 Y83.503 E0.11990
G1 X158.492 Y82.999 E0.02280
G1 X157.249 Y81.756 E0.07960
G1 X157.878 Y81.882 E0.02906
G1 X158.652 Y82.656 E0.04955
G1 F8640.000
G1 X157.878 Y81.882 E-0.43308
G1 X157.249 Y81.756 E-0.25401
G1 X158.492 Y82.999 E-0.69575
G1 X158.492 Y83.503 E-0.19926
G1 X156.620 Y81.630 E-1.04800
G1 X156.075 Y81.522 E-0.21990
G1 E-0.15000 F3600.00000
G1 X158.652 Y86.180 F10800.000
G1 E3.00000 F3600.00000
G1 F1800.000
G1 X143.664 Y71.191 E0.95991
G1 X143.160 Y71.191 E0.02280
G1 X158.492 Y86.523 E0.98190
G1 X158.492 Y87.026 E0.02280
G1 X142.657 Y71.191 E1.01414
G1 X142.153 Y71.191 E0.02280
G1 X158.492 Y87.530 E1.04638
G1 X158.492 Y88.033 E0.02280
G1 X141.650 Y71.191 E1.07862
G1 X141.147 Y71.191 E0.02280
G1 X158.492 Y88.537 E1.11086
G1 X158.492 Y89.040 E0.02280
G1 X140.643 Y71.191 E1.14310
G1 X140.140 Y71.191 E0.02280
G1 X158.492 Y89.543 E1.17534
G1 X158.492 Y90.047 E0.02280
G1 X139.636 Y71.191 E1.20758
G1 X139.133 Y71.191 E0.02280
G1 X158.492 Y90.550 E1.23982
G1 X158.492 Y91.054 E0.02280
G1 X138.629 Y71.191 E1.27206
M73 Q1 S68
G1 X138.126 Y71.191 E0.02280
G1 X158.492 Y91.557 E1.30430
M73 P1 R67
G1 X158.492 Y92.060 E0.02280
G1 X137.623 Y71.191 E1.33654
G1 X137.119 Y71.191 E0.02280
G1 X158.492 Y92.564 E1.36878
G1 X158.492 Y93.067 E0.02280
G1 X136.616 Y71.191 E1.40102
G1 X136.112 Y71.191 E0.02280
G1 X158.492 Y93.571 E1.43326
G1 X158.492 Y94.074 E0.02280
G1 X135.609 Y71.191 E1.46550
G1 X135.106 Y71.191 E0.02280
G1 X158.492 Y94.577 E1.49774
G1 X158.492 Y95.081 E0.02280
G1 X134.602 Y71.191 E1.52998
G1 X134.099 Y71.191 E0.02280
G1 X158.492 Y95.584 E1.56221
G1 X158.492 Y96.088 E0.02280
G1 X133.595 Y71.191 E1.59445
G1 X133.092 Y71.191 E0.02280
G1 X158.492 Y96.591 E1.62669
G1 X158.492 Y97.094 E0.02280
G1 X132.589 Y71.191 E1.65893
G1 X132.085 Y71.191 E0.02280
G1 X158.492 Y97.598 E1.69117
G1 X158.492 Y98.101 E0.02280
G1 X131.582 Y71.191 E1.72341
G1 X131.078 Y71.191 E0.02280
G1 X158.492 Y98.605 E1.75565
G1 X158.492 Y99.108 E0.02280
G1 X130.575 Y71.191 E1.78789
G1 X130.072 Y71.191 E0.02280
G1 X158.492 Y99.611 E1.82013
G1 X158.492 Y100.115 E0.02280
G1 X129.568 Y71.191 E1.85237
G1 X129.065 Y71.191 E0.02280
