; generated by PrusaSlicer 2.2.0+win64 on 2020-07-28 at 21:41:39 UTC

; 

; external perimeters extrusion width = 0.60mm
; perimeters extrusion width = 0.50mm
; infill extrusion width = 0.50mm
; solid infill extrusion width = 0.50mm
; top infill extrusion width = 0.45mm
; first layer extrusion width = 0.42mm

M73 P0 R19
M73 Q0 S19
M201 X1000 Y1000 Z200 E5000 ; sets maximum accelerations, mm/sec^2
M203 X200 Y200 Z12 E120 ; sets maximum feedrates, mm/sec
M204 P1250 R1250 T1250 ; sets acceleration (P, T) and retract acceleration (R), mm/sec^2
M205 X8.00 Y8.00 Z0.40 E4.50 ; sets the jerk limits, mm/sec
M205 S0 T0 ; sets the minimum extruding and travel feed rate, mm/sec
M107
M862.3 P "MK3S" ; printer model check
M862.1 P0.4 ; nozzle diameter check
M115 U3.9.0 ; tell printer latest fw version
G90 ; use absolute coordinates
M83 ; extruder relative mode
M104 S215 ; set extruder temp
M140 S60 ; set bed temp
M190 S60 ; wait for bed temp
M109 S215 ; wait for extruder temp
G28 W ; home all without mesh bed level
G80 ; mesh bed leveling
G1 Y-3.0 F1000.0 ; go outside print area
G92 E0.0
G1 X60.0 E9.0 F1000.0 ; intro line
M73 Q0 S19
M73 P0 R18
G1 X100.0 E12.5 F1000.0 ; intro line
G92 E0.0
M221 S95
G21 ; set units to millimeters
G90 ; use absolute coordinates
M83 ; use relative distances for extrusion
M900 K0.06 ; Filament gcode LA 1.5
M900 K30 ; Filament gcode LA 1.0
;BEFORE_LAYER_CHANGE
G92 E0.0
;0.2


G1 E-3.00000 F3600.00000
G1 Z0.200 F10800.000
;AFTER_LAYER_CHANGE
;0.2
G1 X133.994 Y4.002
G1 E3.00000 F3600.00000
M204 S1000
G1 F1200.000
G1 X134.761 Y4.511 E0.02884
G1 X135.277 Y5.272 E0.02884
G1 X135.465 Y6.172 E0.02884
G1 X135.458 Y203.990 E6.20244
G1 X135.256 Y204.776 E0.02543
G1 X134.799 Y205.451 E0.02555
G1 X134.144 Y205.930 E0.02543
G1 X133.363 Y206.161 E0.02555
G1 X116.768 Y206.169 E0.52031
G1 X115.924 Y205.940 E0.02743
G1 X115.220 Y205.421 E0.02743
G1 X114.751 Y204.682 E0.02743
G1 X114.582 Y203.824 E0.02743
G1 X114.589 Y6.010 E6.20232
G1 X114.791 Y5.224 E0.02543
G1 X115.245 Y4.552 E0.02543
G1 X115.903 Y4.070 E0.02555
G1 X116.680 Y3.839 E0.02543
G1 X133.092 Y3.823 E0.51459
G1 X133.935 Y3.991 E0.02696
G1 F8640.000
G1 X134.761 Y4.511 E-0.38615
G1 X135.277 Y5.272 E-0.36407
G1 X135.465 Y6.172 E-0.36407
G1 X135.465 Y10.557 E-1.73572
G1 E-0.15000 F3600.00000
G1 X132.678 Y6.610 F10800.000
G1 E3.00000 F3600.00000
G1 F1200.000
G1 X132.678 Y203.390 E6.16990
G1 X117.369 Y203.390 E0.48003
G1 X117.369 Y6.610 E6.16990
G1 X132.618 Y6.610 E0.47814
G1 X132.668 Y7.010 F10800.000
G1 X132.301 Y6.987
G1 F1200.000
G1 X132.301 Y203.013 E6.14625
G1 X117.746 Y203.013 E0.45638
G1 X117.746 Y6.987 E6.14625
M73 Q6 S17
M73 P6 R17
G1 X132.241 Y6.987 E0.45450
G1 X131.924 Y7.364 F10800.000
G1 F1200.000
G1 X131.924 Y202.636 E6.12261
G1 X118.123 Y202.636 E0.43273
G1 X118.123 Y7.364 E6.12261
G1 X131.864 Y7.364 E0.43085
G1 X131.547 Y7.741 F10800.000
G1 F1200.000
G1 X131.547 Y202.259 E6.09896
G1 X118.500 Y202.259 E0.40909
G1 X118.500 Y7.741 E6.09896
G1 X131.487 Y7.741 E0.40721
G1 F8640.000
G1 X131.489 Y14.941 E-2.85000
G1 E-0.15000 F3600.00000
G1 X119.376 Y202.146 F10800.000
G1 E3.00000 F3600.00000
G1 F1200.000
G1 X118.783 Y201.552 E0.02636
G1 X118.783 Y201.018 E0.01677
G1 X119.741 Y201.976 E0.04253
G1 X120.275 Y201.976 E0.01677
G1 X118.783 Y200.484 E0.06624
G1 X118.783 Y199.950 E0.01677
G1 X120.809 Y201.976 E0.08995
G1 X121.343 Y201.976 E0.01677
G1 X118.783 Y199.416 E0.11366
G1 X118.783 Y198.882 E0.01677
G1 X121.876 Y201.976 E0.13737
G1 X122.410 Y201.976 E0.01677
G1 X118.783 Y198.348 E0.16108
G1 X118.783 Y197.814 E0.01677
G1 X122.944 Y201.976 E0.18479
G1 X123.478 Y201.976 E0.01677
G1 X118.783 Y197.280 E0.20850
G1 X118.783 Y196.746 E0.01677
G1 X124.012 Y201.976 E0.23221
G1 X124.546 Y201.976 E0.01677
G1 X118.783 Y196.212 E0.25592
G1 X118.783 Y195.678 E0.01677
G1 X125.080 Y201.976 E0.27963
G1 X125.614 Y201.976 E0.01677
G1 X118.783 Y195.144 E0.30334
G1 X118.783 Y194.610 E0.01677
G1 X126.148 Y201.976 E0.32705
G1 X126.682 Y201.976 E0.01677
G1 X118.783 Y194.076 E0.35076
G1 X118.783 Y193.542 E0.01677
G1 X127.216 Y201.976 E0.37447
G1 X127.750 Y201.976 E0.01677
G1 X118.783 Y193.008 E0.39818
G1 X118.783 Y192.474 E0.01677
G1 X128.284 Y201.976 E0.42189
G1 X128.818 Y201.976 E0.01677
G1 X118.783 Y191.940 E0.44560
G1 X118.783 Y191.406 E0.01677
G1 X129.352 Y201.976 E0.46931
G1 X129.886 Y201.976 E0.01677
G1 X118.783 Y190.872 E0.49302
G1 X118.783 Y190.338 E0.01677
G1 X130.420 Y201.976 E0.51673
G1 X130.954 Y201.976 E0.01677
G1 X118.783 Y189.804 E0.54044
G1 X118.783 Y189.270 E0.01677
G1 X131.264 Y201.752 E0.55420
G1 X131.264 Y201.218 E0.01677
G1 X118.783 Y188.736 E0.55420
G1 X118.783 Y188.202 E0.01677
G1 X131.264 Y200.684 E0.55420
G1 X131.264 Y200.150 E0.01677
G1 X118.783 Y187.668 E0.55420
G1 X118.783 Y187.134 E0.01677
G1 X131.264 Y199.616 E0.55420
M73 Q11 S16
G1 X131.264 Y199.082 E0.01677
G1 X118.783 Y186.600 E0.55420
M73 P11 R16
G1 X118.783 Y186.066 E0.01677
G1 X131.264 Y198.548 E0.55420
G1 X131.264 Y198.014 E0.01677
G1 X118.783 Y185.532 E0.55420
G1 X118.783 Y184.998 E0.01677
G1 X131.264 Y197.480 E0.55420
G1 X131.264 Y196.946 E0.01677
G1 X118.783 Y184.464 E0.55420
G1 X118.783 Y183.930 E0.01677
G1 X131.264 Y196.412 E0.55420
G1 X131.264 Y195.878 E0.01677
G1 X118.783 Y183.396 E0.55420
G1 X118.783 Y182.862 E0.01677
G1 X131.264 Y195.344 E0.55420
G1 X131.264 Y194.810 E0.01677
G1 X118.783 Y182.328 E0.55420
G1 X118.783 Y181.794 E0.01677
G1 X131.264 Y194.276 E0.55420
G1 X131.264 Y193.742 E0.01677
G1 X118.783 Y181.260 E0.55420
G1 X118.783 Y180.726 E0.01677
G1 X131.264 Y193.208 E0.55420
G1 X131.264 Y192.674 E0.01677
G1 X118.783 Y180.192 E0.55420
G1 X118.783 Y179.658 E0.01677
G1 X131.264 Y192.140 E0.55420
G1 X131.264 Y191.606 E0.01677
G1 X118.783 Y179.124 E0.55420
G1 X118.783 Y178.590 E0.01677
G1 X131.264 Y191.072 E0.55420
G1 X131.264 Y190.538 E0.01677
G1 X118.783 Y178.056 E0.55420
G1 X118.783 Y177.522 E0.01677
G1 X131.264 Y190.004 E0.55420
G1 X131.264 Y189.470 E0.01677
G1 X118.783 Y176.989 E0.55420
G1 X118.783 Y176.455 E0.01677
G1 X131.264 Y188.936 E0.55420
G1 X131.264 Y188.402 E0.01677
G1 X118.783 Y175.921 E0.55420
G1 X118.783 Y175.387 E0.01677
G1 X131.264 Y187.868 E0.55420
G1 X131.264 Y187.334 E0.01677
G1 X118.783 Y174.853 E0.55420
G1 X118.783 Y174.319 E0.01677
G1 X131.264 Y186.800 E0.55420
G1 X131.264 Y186.266 E0.01677
G1 X118.783 Y173.785 E0.55420
G1 X118.783 Y173.251 E0.01677
G1 X131.264 Y185.732 E0.55420
G1 X131.264 Y185.198 E0.01677
G1 X118.783 Y172.717 E0.55420
G1 X118.783 Y172.183 E0.01677
G1 X131.264 Y184.664 E0.55420
G1 X131.264 Y184.130 E0.01677
G1 X118.783 Y171.649 E0.55420
G1 X118.783 Y171.115 E0.01677
G1 X131.264 Y183.596 E0.55420
G1 X131.264 Y183.062 E0.01677
G1 X118.783 Y170.581 E0.55420
G1 X118.783 Y170.047 E0.01677
G1 X131.264 Y182.528 E0.55420
G1 X131.264 Y181.994 E0.01677
G1 X118.783 Y169.513 E0.55420
G1 X118.783 Y168.979 E0.01677
G1 X131.264 Y181.460 E0.55420
G1 X131.264 Y180.926 E0.01677
G1 X118.783 Y168.445 E0.55420
G1 X118.783 Y167.911 E0.01677
G1 X131.264 Y180.392 E0.55420
G1 X131.264 Y179.858 E0.01677
G1 X118.783 Y167.377 E0.55420
G1 X118.783 Y166.843 E0.01677
G1 X131.264 Y179.324 E0.55420
G1 X131.264 Y178.790 E0.01677
G1 X118.783 Y166.309 E0.55420
G1 X118.783 Y165.775 E0.01677
G1 X131.264 Y178.256 E0.55420
G1 X131.264 Y177.722 E0.01677
G1 X118.783 Y165.241 E0.55420
G1 X118.783 Y164.707 E0.01677
G1 X131.264 Y177.188 E0.55420
G1 X131.264 Y176.654 E0.01677
G1 X118.783 Y164.173 E0.55420
G1 X118.783 Y163.639 E0.01677
G1 X131.264 Y176.120 E0.55420
G1 X131.264 Y175.586 E0.01677
G1 X118.783 Y163.105 E0.55420
G1 X118.783 Y162.571 E0.01677
G1 X131.264 Y175.052 E0.55420
G1 X131.264 Y174.518 E0.01677
G1 X118.783 Y162.037 E0.55420
G1 X118.783 Y161.503 E0.01677
G1 X131.264 Y173.984 E0.55420
G1 X131.264 Y173.451 E0.01677
G1 X118.783 Y160.969 E0.55420
G1 X118.783 Y160.435 E0.01677
G1 X131.264 Y172.917 E0.55420
G1 X131.264 Y172.383 E0.01677
G1 X118.783 Y159.901 E0.55420
G1 X118.783 Y159.367 E0.01677
G1 X131.264 Y171.849 E0.55420
G1 X131.264 Y171.315 E0.01677
G1 X118.783 Y158.833 E0.55420
G1 X118.783 Y158.299 E0.01677
G1 X131.264 Y170.781 E0.55420
G1 X131.264 Y170.247 E0.01677
G1 X118.783 Y157.765 E0.55420
G1 X118.783 Y157.231 E0.01677
G1 X131.264 Y169.713 E0.55420
G1 X131.264 Y169.179 E0.01677
G1 X118.783 Y156.697 E0.55420
G1 X118.783 Y156.163 E0.01677
G1 X131.264 Y168.645 E0.55420
G1 X131.264 Y168.111 E0.01677
G1 X118.783 Y155.629 E0.55420
G1 X118.783 Y155.095 E0.01677
G1 X131.264 Y167.577 E0.55420
G1 X131.264 Y167.043 E0.01677
G1 X118.783 Y154.561 E0.55420
G1 X118.783 Y154.027 E0.01677
G1 X131.264 Y166.509 E0.55420
G1 X131.264 Y165.975 E0.01677
G1 X118.783 Y153.493 E0.55420
G1 X118.783 Y152.959 E0.01677
G1 X131.264 Y165.441 E0.55420
G1 X131.264 Y164.907 E0.01677
G1 X118.783 Y152.425 E0.55420
G1 X118.783 Y151.891 E0.01677
G1 X131.264 Y164.373 E0.55420
M73 Q17 S15
G1 X131.264 Y163.839 E0.01677
G1 X118.783 Y151.357 E0.55420
M73 P17 R15
G1 X118.783 Y150.823 E0.01677
G1 X131.264 Y163.305 E0.55420
G1 X131.264 Y162.771 E0.01677
G1 X118.783 Y150.289 E0.55420
G1 X118.783 Y149.755 E0.01677
G1 X131.264 Y162.237 E0.55420
G1 X131.264 Y161.703 E0.01677
G1 X118.783 Y149.221 E0.55420
G1 X118.783 Y148.687 E0.01677
G1 X131.264 Y161.169 E0.55420
G1 X131.264 Y160.635 E0.01677
G1 X118.783 Y148.153 E0.55420
G1 X118.783 Y147.619 E0.01677
G1 X131.264 Y160.101 E0.55420
G1 X131.264 Y159.567 E0.01677
G1 X118.783 Y147.085 E0.55420
G1 X118.783 Y146.551 E0.01677
G1 X131.264 Y159.033 E0.55420
G1 X131.264 Y158.499 E0.01677
G1 X118.783 Y146.017 E0.55420
G1 X118.783 Y145.483 E0.01677
G1 X131.264 Y157.965 E0.55420
G1 X131.264 Y157.431 E0.01677
G1 X118.783 Y144.949 E0.55420
G1 X118.783 Y144.415 E0.01677
G1 X131.264 Y156.897 E0.55420
G1 X131.264 Y156.363 E0.01677
G1 X118.783 Y143.881 E0.55420
G1 X118.783 Y143.347 E0.01677
G1 X131.264 Y155.829 E0.55420
G1 X131.264 Y155.295 E0.01677
G1 X118.783 Y142.813 E0.55420
G1 X118.783 Y142.279 E0.01677
G1 X131.264 Y154.761 E0.55420
G1 X131.264 Y154.227 E0.01677
G1 X118.783 Y141.745 E0.55420
G1 X118.783 Y141.211 E0.01677
G1 X131.264 Y153.693 E0.55420
G1 X131.264 Y153.159 E0.01677
G1 X118.783 Y140.677 E0.55420
G1 X118.783 Y140.143 E0.01677
G1 X131.264 Y152.625 E0.55420
G1 X131.264 Y152.091 E0.01677
G1 X118.783 Y139.609 E0.55420
G1 X118.783 Y139.075 E0.01677
G1 X131.264 Y151.557 E0.55420
G1 X131.264 Y151.023 E0.01677
G1 X118.783 Y138.541 E0.55420
G1 X118.783 Y138.007 E0.01677
G1 X131.264 Y150.489 E0.55420
G1 X131.264 Y149.955 E0.01677
G1 X118.783 Y137.473 E0.55420
G1 X118.783 Y136.939 E0.01677
G1 X131.264 Y149.421 E0.55420
G1 X131.264 Y148.887 E0.01677
G1 X118.783 Y136.405 E0.55420
G1 X118.783 Y135.871 E0.01677
G1 X131.264 Y148.353 E0.55420
G1 X131.264 Y147.819 E0.01677
G1 X118.783 Y135.337 E0.55420
G1 X118.783 Y134.803 E0.01677
G1 X131.264 Y147.285 E0.55420
G1 X131.264 Y146.751 E0.01677
G1 X118.783 Y134.269 E0.55420
G1 X118.783 Y133.735 E0.01677
G1 X131.264 Y146.217 E0.55420
G1 X131.264 Y145.683 E0.01677
G1 X118.783 Y133.201 E0.55420
G1 X118.783 Y132.667 E0.01677
G1 X131.264 Y145.149 E0.55420
G1 X131.264 Y144.615 E0.01677
G1 X118.783 Y132.133 E0.55420
G1 X118.783 Y131.599 E0.01677
G1 X131.264 Y144.081 E0.55420
G1 X131.264 Y143.547 E0.01677
G1 X118.783 Y131.065 E0.55420
G1 X118.783 Y130.531 E0.01677
G1 X131.264 Y143.013 E0.55420
G1 X131.264 Y142.479 E0.01677
G1 X118.783 Y129.998 E0.55420
G1 X118.783 Y129.464 E0.01677
G1 X131.264 Y141.945 E0.55420
G1 X131.264 Y141.411 E0.01677
G1 X118.783 Y128.930 E0.55420
G1 X118.783 Y128.396 E0.01677
G1 X131.264 Y140.877 E0.55420
G1 X131.264 Y140.343 E0.01677
G1 X118.783 Y127.862 E0.55420
G1 X118.783 Y127.328 E0.01677
G1 X131.264 Y139.809 E0.55420
G1 X131.264 Y139.275 E0.01677
G1 X118.783 Y126.794 E0.55420
G1 X118.783 Y126.260 E0.01677
G1 X131.264 Y138.741 E0.55420
G1 X131.264 Y138.207 E0.01677
G1 X118.783 Y125.726 E0.55420
G1 X118.783 Y125.192 E0.01677
G1 X131.264 Y137.673 E0.55420
G1 X131.264 Y137.139 E0.01677
G1 X118.783 Y124.658 E0.55420
G1 X118.783 Y124.124 E0.01677
G1 X131.264 Y136.605 E0.55420
G1 X131.264 Y136.071 E0.01677
G1 X118.783 Y123.590 E0.55420
G1 X118.783 Y123.056 E0.01677
G1 X131.264 Y135.537 E0.55420
G1 X131.264 Y135.003 E0.01677
G1 X118.783 Y122.522 E0.55420
G1 X118.783 Y121.988 E0.01677
G1 X131.264 Y134.469 E0.55420
G1 X131.264 Y133.935 E0.01677
G1 X118.783 Y121.454 E0.55420
G1 X118.783 Y120.920 E0.01677
G1 X131.264 Y133.401 E0.55420
G1 X131.264 Y132.867 E0.01677
G1 X118.783 Y120.386 E0.55420
G1 X118.783 Y119.852 E0.01677
G1 X131.264 Y132.333 E0.55420
G1 X131.264 Y131.799 E0.01677
G1 X118.783 Y119.318 E0.55420
G1 X118.783 Y118.784 E0.01677
G1 X131.264 Y131.265 E0.55420
G1 X131.264 Y130.731 E0.01677
G1 X118.783 Y118.250 E0.55420
G1 X118.783 Y117.716 E0.01677
G1 X131.264 Y130.197 E0.55420
G1 X131.264 Y129.663 E0.01677
G1 X118.783 Y117.182 E0.55420
G1 X118.783 Y116.648 E0.01677
G1 X131.264 Y129.129 E0.55420
M73 Q22 S14
G1 X131.264 Y128.595 E0.01677
G1 X118.783 Y116.114 E0.55420
M73 P22 R14
G1 X118.783 Y115.580 E0.01677
G1 X131.264 Y128.061 E0.55420
G1 X131.264 Y127.527 E0.01677
G1 X118.783 Y115.046 E0.55420
G1 X118.783 Y114.512 E0.01677
G1 X131.264 Y126.993 E0.55420
G1 X131.264 Y126.460 E0.01677
G1 X118.783 Y113.978 E0.55420
G1 X118.783 Y113.444 E0.01677
G1 X131.264 Y125.926 E0.55420
G1 X131.264 Y125.392 E0.01677
G1 X118.783 Y112.910 E0.55420
G1 X118.783 Y112.376 E0.01677
G1 X131.264 Y124.858 E0.55420
G1 X131.264 Y124.324 E0.01677
G1 X118.783 Y111.842 E0.55420
G1 X118.783 Y111.308 E0.01677
G1 X131.264 Y123.790 E0.55420
G1 X131.264 Y123.256 E0.01677
G1 X118.783 Y110.774 E0.55420
G1 X118.783 Y110.240 E0.01677
G1 X131.264 Y122.722 E0.55420
G1 X131.264 Y122.188 E0.01677
G1 X118.783 Y109.706 E0.55420
G1 X118.783 Y109.172 E0.01677
G1 X131.264 Y121.654 E0.55420
G1 X131.264 Y121.120 E0.01677
G1 X118.783 Y108.638 E0.55420
G1 X118.783 Y108.104 E0.01677
G1 X131.264 Y120.586 E0.55420
G1 X131.264 Y120.052 E0.01677
G1 X118.783 Y107.570 E0.55420
G1 X118.783 Y107.036 E0.01677
G1 X131.264 Y119.518 E0.55420
G1 X131.264 Y118.984 E0.01677
G1 X118.783 Y106.502 E0.55420
G1 X118.783 Y105.968 E0.01677
G1 X131.264 Y118.450 E0.55420
G1 X131.264 Y117.916 E0.01677
G1 X118.783 Y105.434 E0.55420
G1 X118.783 Y104.900 E0.01677
G1 X131.264 Y117.382 E0.55420
G1 X131.264 Y116.848 E0.01677
G1 X118.783 Y104.366 E0.55420
G1 X118.783 Y103.832 E0.01677
G1 X131.264 Y116.314 E0.55420
G1 X131.264 Y115.780 E0.01677
G1 X118.783 Y103.298 E0.55420
G1 X118.783 Y102.764 E0.01677
G1 X131.264 Y115.246 E0.55420
G1 X131.264 Y114.712 E0.01677
G1 X118.783 Y102.230 E0.55420
G1 X118.783 Y101.696 E0.01677
G1 X131.264 Y114.178 E0.55420
G1 X131.264 Y113.644 E0.01677
G1 X118.783 Y101.162 E0.55420
G1 X118.783 Y100.628 E0.01677
G1 X131.264 Y113.110 E0.55420
G1 X131.264 Y112.576 E0.01677
G1 X118.783 Y100.094 E0.55420
G1 X118.783 Y99.560 E0.01677
G1 X131.264 Y112.042 E0.55420
G1 X131.264 Y111.508 E0.01677
G1 X118.783 Y99.026 E0.55420
G1 X118.783 Y98.492 E0.01677
G1 X131.264 Y110.974 E0.55420
G1 X131.264 Y110.440 E0.01677
G1 X118.783 Y97.958 E0.55420
G1 X118.783 Y97.424 E0.01677
G1 X131.264 Y109.906 E0.55420
G1 X131.264 Y109.372 E0.01677
G1 X118.783 Y96.890 E0.55420
G1 X118.783 Y96.356 E0.01677
G1 X131.264 Y108.838 E0.55420
G1 X131.264 Y108.304 E0.01677
G1 X118.783 Y95.822 E0.55420
G1 X118.783 Y95.288 E0.01677
G1 X131.264 Y107.770 E0.55420
G1 X131.264 Y107.236 E0.01677
G1 X118.783 Y94.754 E0.55420
G1 X118.783 Y94.220 E0.01677
G1 X131.264 Y106.702 E0.55420
G1 X131.264 Y106.168 E0.01677
G1 X118.783 Y93.686 E0.55420
G1 X118.783 Y93.152 E0.01677
G1 X131.264 Y105.634 E0.55420
G1 X131.264 Y105.100 E0.01677
G1 X118.783 Y92.618 E0.55420
G1 X118.783 Y92.084 E0.01677
G1 X131.264 Y104.566 E0.55420
G1 X131.264 Y104.032 E0.01677
G1 X118.783 Y91.550 E0.55420
G1 X118.783 Y91.016 E0.01677
G1 X131.264 Y103.498 E0.55420
G1 X131.264 Y102.964 E0.01677
G1 X118.783 Y90.482 E0.55420
G1 X118.783 Y89.948 E0.01677
G1 X131.264 Y102.430 E0.55420
G1 X131.264 Y101.896 E0.01677
G1 X118.783 Y89.414 E0.55420
G1 X118.783 Y88.880 E0.01677
G1 X131.264 Y101.362 E0.55420
G1 X131.264 Y100.828 E0.01677
G1 X118.783 Y88.346 E0.55420
G1 X118.783 Y87.812 E0.01677
G1 X131.264 Y100.294 E0.55420
