; generated by PrusaSlicer 2.2.0+win64 on 2020-07-28 at 21:49:38 UTC

; 

; external perimeters extrusion width = 0.45mm
; perimeters extrusion width = 0.45mm
; infill extrusion width = 0.45mm
; solid infill extrusion width = 0.45mm
; top infill extrusion width = 0.40mm
; first layer extrusion width = 0.42mm

M73 P0 R123
M73 Q0 S124
M201 X1000 Y1000 Z200 E5000 ; sets maximum accelerations, mm/sec^2
M203 X200 Y200 Z12 E120 ; sets maximum feedrates, mm/sec
M204 P1250 R1250 T1250 ; sets acceleration (P, T) and retract acceleration (R), mm/sec^2
M205 X8.00 Y8.00 Z0.40 E4.50 ; sets the jerk limits, mm/sec
M205 S0 T0 ; sets the minimum extruding and travel feed rate, mm/sec
M107
M862.3 P "MK3S" ; printer model check
M862.1 P0.4 ; nozzle diameter check
M115 U3.9.0 ; tell printer latest fw version
G90 ; use absolute coordinates
M83 ; extruder relative mode
M104 S215 ; set extruder temp
M140 S55 ; set bed temp
M190 S55 ; wait for bed temp
M109 S215 ; wait for extruder temp
G28 W ; home all without mesh bed level
G80 ; mesh bed leveling
G1 Y-3.0 F1000.0 ; go outside print area
G92 E0.0
G1 X60.0 E9.0 F1000.0 ; intro line
M73 Q0 S124
M73 P0 R123
G1 X100.0 E12.5 F1000.0 ; intro line
G92 E0.0
M221 S95
G21 ; set units to millimeters
G90 ; use absolute coordinates
M83 ; use relative distances for extrusion
M900 K0.06 ; Filament gcode LA 1.5
M900 K30 ; Filament gcode LA 1.0
;BEFORE_LAYER_CHANGE
G92 E0.0
;0.2


G1 E-3.00000 F3600.00000
G1 Z0.200 F10800.000
;AFTER_LAYER_CHANGE
;0.2
G1 X92.482 Y68.956
G1 E3.00000 F3600.00000
M204 S1000
G1 F1200.000
G1 X93.168 Y68.457 E0.02714
G1 X93.986 Y68.230 E0.02714
G1 X105.482 Y67.782 E0.36794
G1 X155.528 Y67.782 E1.60055
G1 X156.766 Y67.904 E0.03978
G1 X157.948 Y68.260 E0.03950
G1 X159.049 Y68.844 E0.03986
G1 X159.960 Y69.579 E0.03743
G1 X160.762 Y70.523 E0.03961
G1 X161.199 Y71.252 E0.02718
G1 X161.636 Y72.338 E0.03743
G1 X161.877 Y73.607 E0.04131
G1 X161.900 Y131.227 E1.84277
G1 X161.778 Y132.409 E0.03799
G1 X161.414 Y133.603 E0.03993
G1 X160.825 Y134.704 E0.03993
G1 X160.066 Y135.635 E0.03842
G1 X159.073 Y136.457 E0.04121
G1 X158.020 Y137.026 E0.03830
G1 X147.547 Y141.314 E0.36191
G1 X146.297 Y141.745 E0.04230
G1 X145.021 Y142.035 E0.04185
G1 X142.932 Y142.218 E0.06705
G1 X141.640 Y142.207 E0.04133
G1 X91.402 Y137.129 E1.61486
G1 X90.661 Y136.923 E0.02462
G1 X90.021 Y136.488 E0.02474
G1 X89.524 Y135.809 E0.02690
G1 X89.295 Y135.004 E0.02678
G1 X88.362 Y120.047 E0.47925
G1 X91.832 Y70.405 E1.59150
G1 X92.033 Y69.623 E0.02582
G1 X92.448 Y69.006 E0.02378
G1 F8640.000
G1 X93.168 Y68.457 E-0.35833
G1 X93.986 Y68.230 E-0.33592
G1 X99.428 Y68.018 E-2.15575
G1 E-0.15000 F3600.00000
G1 X95.281 Y71.840 F10800.000
G1 E3.00000 F3600.00000
G1 F1200.000
G1 X96.209 Y71.905 E0.02975
G1 X98.423 Y74.948 E0.12036
G1 X96.750 Y74.809 E0.05370
G1 X93.530 Y120.847 E1.47598
G1 X93.634 Y121.386 E0.01754
G1 X93.932 Y121.813 E0.01666
G1 X94.323 Y122.095 E0.01541
G1 X94.745 Y122.219 E0.01407
G1 X94.977 Y122.226 E0.00743
G1 X93.930 Y125.267 E0.10286
G1 X93.830 Y124.683 E0.01897
G1 X93.641 Y123.816 E0.02837
G1 X93.414 Y122.959 E0.02837
G1 X93.149 Y122.112 E0.02836
G1 X92.848 Y121.280 E0.02829
G1 X92.512 Y120.464 E0.02823
G1 X91.961 Y119.319 E0.04064
G1 X95.277 Y71.900 E1.52022
G1 F8640.000
G1 X96.209 Y71.905 E-0.36892
G1 X98.423 Y74.948 E-1.48966
G1 X96.750 Y74.809 E-0.66468
G1 X96.692 Y75.632 E-0.32674
G1 E-0.15000 F3600.00000
G1 X97.099 Y75.216 F10800.000
G1 E3.00000 F3600.00000
G1 F1200.000
G1 X93.910 Y120.824 E1.46218
G1 X93.990 Y121.236 E0.01341
G1 X94.205 Y121.545 E0.01204
G1 X94.491 Y121.751 E0.01128
G1 X94.805 Y121.844 E0.01047
G1 X95.031 Y121.851 E0.00724
G1 X95.326 Y121.784 E0.00966
G1 X95.527 Y121.680 E0.00723
G1 X95.581 Y121.631 E0.00233
G1 X93.755 Y126.947 E0.17975
G1 X93.721 Y126.522 E0.01362
G1 X93.607 Y125.613 E0.02931
G1 X93.459 Y124.755 E0.02785
G1 X93.274 Y123.904 E0.02783
G1 X93.051 Y123.063 E0.02783
G1 X92.792 Y122.233 E0.02783
G1 X92.496 Y121.416 E0.02776
G1 X92.166 Y120.615 E0.02770
G1 X91.824 Y119.877 E0.02601
G1 X91.578 Y119.397 E0.01726
G1 X94.932 Y71.438 E1.53756
G1 X96.411 Y71.541 E0.04742
G1 X98.768 Y74.782 E0.12816
G1 X99.091 Y75.193 E0.01671
G1 X99.329 Y75.446 E0.01113
G1 X98.919 Y75.368 E0.01336
G1 X97.159 Y75.221 E0.05647
G1 F8640.000
G1 X96.647 Y82.403 E-2.85000
G1 E-0.15000 F3600.00000
G1 X153.360 Y74.204 F10800.000
G1 E3.00000 F3600.00000
G1 F1200.000
G1 X153.360 Y81.113 E0.22095
G1 X158.360 Y82.113 E0.16307
G1 X158.360 Y131.130 E1.56763
G1 X158.345 Y131.437 E0.00983
G1 X158.304 Y131.712 E0.00891
G1 X158.236 Y131.983 E0.00891
G1 X158.142 Y132.245 E0.00893
G1 X158.022 Y132.499 E0.00898
G1 X157.878 Y132.738 E0.00893
G1 X157.711 Y132.962 E0.00893
G1 X157.523 Y133.168 E0.00893
G1 X157.316 Y133.355 E0.00893
G1 X157.091 Y133.521 E0.00893
G1 X156.851 Y133.663 E0.00893
G1 X156.572 Y133.794 E0.00985
G1 X147.112 Y137.667 E0.32692
G1 X147.233 Y137.323 E0.01164
G1 X147.314 Y136.930 E0.01282
G1 X147.339 Y136.504 E0.01365
G1 X147.303 Y136.079 E0.01365
G1 X147.206 Y135.664 E0.01365
G1 X147.051 Y135.266 E0.01365
G1 X146.841 Y134.895 E0.01365
G1 X146.579 Y134.558 E0.01365
G1 X145.994 Y133.994 E0.02598
G1 X97.562 Y133.994 E1.54891
G1 X97.260 Y131.370 E0.08448
G1 X97.253 Y130.968 E0.01285
G1 X97.324 Y130.603 E0.01189
G1 X97.386 Y130.428 E0.00595
G1 X97.553 Y130.117 E0.01129
G1 X99.313 Y127.966 E0.08890
G1 X99.734 Y127.361 E0.02355
G1 X100.114 Y126.740 E0.02327
G1 X100.455 Y126.098 E0.02327
G1 X100.758 Y125.436 E0.02327
G1 X101.020 Y124.757 E0.02327
G1 X101.242 Y124.064 E0.02329
G1 X101.424 Y123.347 E0.02364
G1 X101.559 Y122.644 E0.02289
G1 X101.653 Y121.923 E0.02327
G1 X101.704 Y121.197 E0.02327
G1 X101.711 Y120.469 E0.02327
G1 X101.675 Y119.742 E0.02327
G1 X101.595 Y119.019 E0.02327
G1 X101.472 Y118.301 E0.02327
G1 X101.307 Y117.593 E0.02327
G1 X101.100 Y116.895 E0.02327
G1 X100.849 Y116.207 E0.02341
G1 X100.134 Y114.595 E0.05642
G1 X99.919 Y114.270 E0.01247
G1 X99.532 Y113.976 E0.01552
G1 X99.107 Y113.842 E0.01426
G1 X98.850 Y113.830 E0.00823
G1 X99.043 Y113.269 E0.01897
G1 X99.137 Y112.906 E0.01200
G1 X99.177 Y112.486 E0.01348
G1 X99.150 Y112.066 E0.01348
G1 X99.069 Y111.709 E0.01169
G1 X98.767 Y110.674 E0.03450
G1 X98.513 Y109.683 E0.03271
G1 X98.293 Y108.684 E0.03271
G1 X98.107 Y107.678 E0.03271
G1 X97.955 Y106.667 E0.03271
G1 X97.837 Y105.650 E0.03271
G1 X97.753 Y104.631 E0.03271
G1 X97.704 Y103.609 E0.03271
G1 X97.689 Y102.587 E0.03271
G1 X97.708 Y101.564 E0.03271
G1 X97.763 Y100.533 E0.03303
G1 X99.036 Y82.323 E0.58380
G1 X102.688 Y82.323 E0.11680
G1 X102.688 Y77.468 E0.15527
G1 X106.200 Y71.323 E0.22635
G1 X155.498 Y71.323 E1.57661
G1 X155.802 Y71.338 E0.00976
G1 X156.077 Y71.379 E0.00890
G1 X156.347 Y71.446 E0.00890
G1 X156.609 Y71.540 E0.00890
G1 X156.861 Y71.659 E0.00890
G1 X157.099 Y71.802 E0.00890
G1 X157.323 Y71.968 E0.00890
G1 X157.529 Y72.154 E0.00890
G1 X157.715 Y72.360 E0.00890
G1 X157.881 Y72.584 E0.00890
G1 X158.024 Y72.822 E0.00890
G1 X158.201 Y73.236 E0.01439
G1 X153.419 Y74.192 E0.15596
G1 X153.737 Y74.513 F10800.000
G1 F1200.000
G1 X153.737 Y80.804 E0.20118
G1 X158.737 Y81.804 E0.16307
G1 X158.737 Y131.139 E1.57782
G1 X158.721 Y131.474 E0.01072
G1 X158.674 Y131.786 E0.01009
G1 X158.598 Y132.092 E0.01009
G1 X158.491 Y132.390 E0.01013
G1 X158.354 Y132.678 E0.01017
G1 X158.191 Y132.949 E0.01012
G1 X158.002 Y133.202 E0.01012
G1 X157.789 Y133.436 E0.01012
G1 X157.554 Y133.648 E0.01012
G1 X157.300 Y133.835 E0.01012
G1 X157.028 Y133.997 E0.01012
G1 X156.724 Y134.139 E0.01074
G1 X146.081 Y138.486 E0.36764
G1 X146.340 Y138.224 E0.01177
G1 X146.561 Y137.924 E0.01191
G1 X146.738 Y137.593 E0.01200
G1 X146.868 Y137.222 E0.01257
G1 X146.939 Y136.881 E0.01114
G1 X146.961 Y136.509 E0.01191
G1 X146.930 Y136.138 E0.01191
G1 X146.845 Y135.775 E0.01191
G1 X146.710 Y135.429 E0.01191
G1 X146.526 Y135.105 E0.01191
G1 X146.298 Y134.811 E0.01191
G1 X145.842 Y134.372 E0.02024
G1 X97.226 Y134.372 E1.55480
G1 X96.885 Y131.404 E0.09554
G1 X96.877 Y130.935 E0.01500
G1 X96.962 Y130.495 E0.01434
G1 X97.038 Y130.283 E0.00718
G1 X97.245 Y129.898 E0.01397
G1 X99.012 Y127.738 E0.08928
G1 X99.418 Y127.155 E0.02272
G1 X99.786 Y126.553 E0.02255
G1 X100.117 Y125.931 E0.02255
G1 X100.410 Y125.290 E0.02255
G1 X100.665 Y124.632 E0.02255
G1 X100.879 Y123.960 E0.02256
G1 X101.056 Y123.265 E0.02292
G1 X101.186 Y122.584 E0.02217
G1 X101.277 Y121.885 E0.02255
G1 X101.327 Y121.182 E0.02255
G1 X101.334 Y120.476 E0.02255
G1 X101.299 Y119.772 E0.02255
G1 X101.222 Y119.071 E0.02255
G1 X101.103 Y118.376 E0.02255
G1 X100.942 Y117.689 E0.02255
G1 X100.741 Y117.014 E0.02255
G1 X100.499 Y116.349 E0.02263
G1 X99.802 Y114.777 E0.05499
G1 X99.640 Y114.531 E0.00941
G1 X99.356 Y114.316 E0.01138
G1 X99.040 Y114.217 E0.01061
G1 X98.811 Y114.206 E0.00733
G1 X98.512 Y114.269 E0.00978
G1 X98.307 Y114.373 E0.00733
G1 X98.245 Y114.428 E0.00265
G1 X98.682 Y113.161 E0.04285
G1 X98.764 Y112.841 E0.01057
G1 X98.798 Y112.481 E0.01157
G1 X98.775 Y112.119 E0.01157
G1 X98.704 Y111.804 E0.01036
G1 X98.403 Y110.773 E0.03433
G1 X98.146 Y109.770 E0.03312
G1 X97.923 Y108.759 E0.03312
G1 X97.735 Y107.740 E0.03312
G1 X97.581 Y106.716 E0.03312
G1 X97.461 Y105.688 E0.03312
G1 X97.376 Y104.656 E0.03312
G1 X97.327 Y103.621 E0.03312
G1 X97.312 Y102.586 E0.03312
G1 X97.332 Y101.550 E0.03312
G1 X97.387 Y100.510 E0.03333
G1 X98.685 Y81.946 E0.59515
G1 X102.311 Y81.946 E0.11598
G1 X102.311 Y77.368 E0.14641
G1 X105.981 Y70.946 E0.23655
G1 X155.507 Y70.946 E1.58390
G1 X155.839 Y70.962 E0.01064
G1 X156.151 Y71.008 E0.01008
G1 X156.457 Y71.085 E0.01008
G1 X156.754 Y71.191 E0.01008
G1 X157.038 Y71.326 E0.01008
G1 X157.309 Y71.488 E0.01008
G1 X157.562 Y71.676 E0.01008
G1 X157.796 Y71.887 E0.01008
G1 X158.007 Y72.121 E0.01008
G1 X158.195 Y72.374 E0.01008
G1 X158.357 Y72.644 E0.01008
G1 X158.492 Y72.929 E0.01008
G1 X158.598 Y73.226 E0.01008
G1 X158.673 Y73.526 E0.00989
G1 X153.796 Y74.502 E0.15906
G1 X154.114 Y74.823 F10800.000
G1 F1200.000
G1 X154.114 Y80.495 E0.18140
G1 X159.114 Y81.495 E0.16307
G1 X159.114 Y131.149 E1.58800
G1 X159.097 Y131.511 E0.01161
G1 X159.045 Y131.860 E0.01128
G1 X158.959 Y132.202 E0.01128
G1 X158.840 Y132.535 E0.01132
G1 X158.687 Y132.856 E0.01137
G1 X158.505 Y133.159 E0.01131
G1 X158.294 Y133.442 E0.01131
G1 X158.056 Y133.704 E0.01131
G1 X157.793 Y133.940 E0.01131
G1 X157.508 Y134.150 E0.01131
G1 X157.204 Y134.331 E0.01131
G1 X156.875 Y134.485 E0.01163
G1 X146.543 Y138.714 E0.35705
M73 Q0 S123
G1 X146.040 Y138.904 E0.01720
G1 X145.532 Y139.064 E0.01702
G1 X145.016 Y139.196 E0.01702
G1 X144.494 Y139.299 E0.01702
G1 X143.967 Y139.372 E0.01702
G1 X143.436 Y139.417 E0.01702
M73 P0 R122
G1 X142.899 Y139.431 E0.01720
G1 X142.282 Y139.431 E0.01973
G1 X142.282 Y138.751 E0.02175
G1 X144.387 Y138.751 E0.06731
G1 X144.689 Y138.730 E0.00970
G1 X145.000 Y138.661 E0.01017
G1 X145.297 Y138.549 E0.01017
G1 X145.576 Y138.396 E0.01017
G1 X145.829 Y138.204 E0.01017
G1 X146.053 Y137.978 E0.01017
G1 X146.241 Y137.722 E0.01017
G1 X146.392 Y137.441 E0.01020
G1 X146.504 Y137.121 E0.01083
G1 X146.564 Y136.831 E0.00946
G1 X146.583 Y136.514 E0.01017
G1 X146.556 Y136.197 E0.01017
G1 X146.484 Y135.887 E0.01017
G1 X146.368 Y135.591 E0.01017
G1 X146.211 Y135.315 E0.01017
G1 X146.016 Y135.063 E0.01017
G1 X145.690 Y134.749 E0.01451
G1 X96.890 Y134.749 E1.56069
G1 X96.509 Y131.437 E0.10660
G1 X96.491 Y131.164 E0.00877
G1 X96.501 Y130.901 E0.00839
G1 X96.538 Y130.641 E0.00841
G1 X96.601 Y130.386 E0.00841
G1 X96.689 Y130.138 E0.00841
G1 X96.802 Y129.901 E0.00841
G1 X96.936 Y129.680 E0.00826
G1 X98.711 Y127.511 E0.08966
G1 X99.102 Y126.949 E0.02189
G1 X99.458 Y126.366 E0.02183
G1 X99.779 Y125.764 E0.02183
G1 X100.063 Y125.143 E0.02183
G1 X100.309 Y124.506 E0.02183
G1 X100.517 Y123.856 E0.02183
G1 X100.687 Y123.183 E0.02220
G1 X100.814 Y122.524 E0.02146
G1 X100.902 Y121.847 E0.02183
G1 X100.950 Y121.167 E0.02183
G1 X100.957 Y120.484 E0.02183
G1 X100.923 Y119.802 E0.02183
G1 X100.848 Y119.124 E0.02183
G1 X100.733 Y118.451 E0.02183
G1 X100.578 Y117.786 E0.02183
G1 X100.383 Y117.132 E0.02183
G1 X100.149 Y116.490 E0.02186
G1 X99.470 Y114.958 E0.05357
G1 X99.361 Y114.793 E0.00634
G1 X99.181 Y114.656 E0.00723
G1 X98.973 Y114.591 E0.00696
G1 X98.842 Y114.585 E0.00421
G1 X98.638 Y114.628 E0.00666
G1 X98.521 Y114.687 E0.00421
G1 X98.358 Y114.831 E0.00694
G1 X98.261 Y115.006 E0.00639
G1 X94.192 Y126.823 E0.39971
G1 X93.831 Y127.931 E0.03726
G1 X93.804 Y128.107 E0.00571
G1 X93.695 Y130.150 E0.06543
G1 X93.472 Y132.511 E0.07586
G1 X93.334 Y134.472 E0.06287
G1 X92.523 Y134.416 E0.02599
G1 X92.861 Y133.246 E0.03892
G1 X93.051 Y132.411 E0.02739
G1 X93.182 Y131.564 E0.02742
G1 X93.335 Y129.920 E0.05280
G1 X93.418 Y128.227 E0.05421
G1 X93.411 Y127.369 E0.02743
G1 X93.346 Y126.561 E0.02593
G1 X93.234 Y125.668 E0.02877
G1 X93.089 Y124.827 E0.02731
G1 X92.907 Y123.993 E0.02730
G1 X92.689 Y123.168 E0.02730
G1 X92.434 Y122.353 E0.02730
G1 X92.145 Y121.552 E0.02723
G1 X91.821 Y120.766 E0.02718
G1 X91.486 Y120.043 E0.02550
G1 X91.194 Y119.476 E0.02038
G1 X94.582 Y71.035 E1.55298
G1 X96.612 Y71.177 E0.06510
G1 X99.069 Y74.554 E0.13357
G1 X99.377 Y74.947 E0.01594
G1 X99.727 Y75.318 E0.01631
G1 X100.097 Y75.632 E0.01552
G1 X100.375 Y76.024 E0.01538
G1 X99.864 Y75.996 E0.01636
G1 X99.386 Y75.841 E0.01608
G1 X98.868 Y75.742 E0.01688
G1 X97.449 Y75.624 E0.04554
G1 X94.290 Y120.801 E1.44837
G1 X94.345 Y121.086 E0.00928
G1 X94.477 Y121.277 E0.00743
G1 X94.659 Y121.408 E0.00716
G1 X94.865 Y121.468 E0.00687
G1 X94.995 Y121.472 E0.00415
G1 X95.195 Y121.427 E0.00658
G1 X95.311 Y121.367 E0.00415
G1 X95.470 Y121.224 E0.00685
G1 X95.566 Y121.052 E0.00630
G1 X98.320 Y113.052 E0.27059
G1 X98.392 Y112.775 E0.00914
G1 X98.420 Y112.475 E0.00966
G1 X98.401 Y112.173 E0.00966
G1 X98.339 Y111.898 E0.00903
G1 X98.039 Y110.873 E0.03416
G1 X97.779 Y109.857 E0.03353
G1 X97.554 Y108.834 E0.03353
G1 X97.363 Y107.803 E0.03353
G1 X97.207 Y106.766 E0.03353
G1 X97.086 Y105.725 E0.03353
G1 X97.000 Y104.680 E0.03353
G1 X96.950 Y103.633 E0.03353
G1 X96.934 Y102.585 E0.03353
G1 X96.955 Y101.537 E0.03353
G1 X97.010 Y100.486 E0.03364
G1 X98.333 Y81.569 E0.60650
G1 X101.934 Y81.569 E0.11517
G1 X101.934 Y77.267 E0.13755
G1 X105.762 Y70.569 E0.24675
G1 X155.516 Y70.569 E1.59119
G1 X155.876 Y70.586 E0.01153
G1 X156.225 Y70.638 E0.01127
G1 X156.566 Y70.724 E0.01127
G1 X156.898 Y70.842 E0.01127
G1 X157.216 Y70.993 E0.01127
G1 X157.519 Y71.174 E0.01127
G1 X157.802 Y71.384 E0.01127
G1 X158.063 Y71.620 E0.01127
G1 X158.299 Y71.881 E0.01127
G1 X158.509 Y72.164 E0.01127
G1 X158.690 Y72.467 E0.01127
G1 X158.841 Y72.785 E0.01127
G1 X158.959 Y73.117 E0.01127
G1 X159.045 Y73.458 E0.01127
G1 X159.098 Y73.826 E0.01188
G1 X154.173 Y74.811 E0.16061
G1 X153.716 Y74.858 F10800.000
G1 F8640.000
G1 X154.114 Y80.495 E-2.25001
G1 X155.601 Y80.792 E-0.59999
G1 E-0.15000 F3600.00000
G1 X157.980 Y73.007 F10800.000
G1 E3.00000 F3600.00000
G1 F1200.000
G1 X157.321 Y72.348 E0.02993
G1 X156.942 Y72.037 E0.01572
G1 X156.501 Y71.801 E0.01605
G1 X156.118 Y71.680 E0.01287
G1 X157.522 Y73.084 E0.06370
G1 X157.076 Y73.173 E0.01460
G1 X155.509 Y71.607 E0.07110
G1 X154.973 Y71.606 E0.01721
G1 X156.630 Y73.262 E0.07519
G1 X156.184 Y73.351 E0.01460
G1 X154.438 Y71.606 E0.07924
G1 X153.903 Y71.606 E0.01718
G1 X155.737 Y73.440 E0.08329
G1 X155.291 Y73.530 E0.01460
G1 X153.367 Y71.606 E0.08734
G1 X152.832 Y71.606 E0.01718
G1 X154.845 Y73.619 E0.09139
G1 X154.399 Y73.708 E0.01460
G1 X152.297 Y71.606 E0.09544
G1 X151.762 Y71.606 E0.01718
G1 X153.953 Y73.797 E0.09949
G1 X153.507 Y73.886 E0.01460
G1 X151.227 Y71.606 E0.10354
G1 X150.691 Y71.606 E0.01718
G1 X153.077 Y73.992 E0.10831
G1 X153.077 Y74.527 E0.01718
G1 X150.156 Y71.606 E0.13261
G1 X149.621 Y71.606 E0.01718
G1 X153.077 Y75.062 E0.15690
G1 X153.077 Y75.597 E0.01718
G1 X149.086 Y71.606 E0.18120
G1 X148.550 Y71.606 E0.01718
G1 X153.077 Y76.133 E0.20550
G1 X153.077 Y76.668 E0.01718
G1 X148.015 Y71.606 E0.22979
G1 X147.480 Y71.606 E0.01718
G1 X153.077 Y77.203 E0.25409
G1 X153.077 Y77.738 E0.01718
G1 X146.945 Y71.606 E0.27838
G1 X146.410 Y71.606 E0.01718
G1 X153.077 Y78.273 E0.30268
G1 X153.077 Y78.809 E0.01718
